X:1
T:Des herb ais
T:Des herb ais 
T:Thomas Crecquillon
C:Thomas Crecquillon
%%score [ 1 2 3 4 ]
L:1/8
Q:1/4=100
M:2/2
K:F
V:1 treble nm="Soprano" snm="S"
V:2 treble nm="Alto" snm="A"
V:3 treble-8 nm="Tenor" snm="T"
V:4 bass nm="Bass" snm="B"
V:1
 G3 F GA B2- | B2 A4 G2- | G2 FE F2 F2 | G2 F2 G B2 A | BA Bc defe | dc BA GF A2- | AG G4 F2 | %7
w: Des _ _ _ herb|_ ais as-|* sez, _ bel- le,|pour toy gue- * *||||
 G6 G2 | A4 B4 | G2 G2 A2 c2 | B2 B2 AB cd | ec f3 e d2- |"^#" d2 c2 d4 | z2 d2 c2 B2 | %14
w: rir, sans|aul- tre-|part ung me- di-|cin que- * * * *||* * rir,|pour à ton|
 A2 A2 B2 B2 | A2 G2 F3 G | A2 B2 c2 B2- | B2 A2 B4 | z2 G2 G2 B2- | BAGF G4 | F4 z2 F2 | %21
w: mal don- ner al-|le- * * *|* * * ge-|* * ment,-|puis tu scais|_ _ _ _ _|bien quan-|
 F3 G A2 B2- | B2 A4 G2 | A3 B c2 d2 | B4 A4- | A4 z2 A2 | A2 B2 G4- | G2 G2 c3 B | A2 G3 F F2- | %29
w: tef- * * fois|_ _ _|* * * et|com- ment,|_ je|t'ay ser- vy|_ sans quel- que|re- com- * pen-|
 F2 E2 F4 | z2 F2 B3 c | d2 _e3 d d2- | d2 c2 d2 d2 | d2 c2 B3 A | F2 A2 B2 d2 | d2 c2 d3 c | %36
w: * * se,|sans quel- que|re- com- * pen-|* * se. Je|ne dis pas _|_ tout ce que|mon cueur pen- *|
 B2 A2 B2 A2- | AG G4 F2 | G2 d2 d2 c2 | B3 A F2 A2 | B2 d2 d2 c2 | d3 c B2 A2 | B2 A3 G G2- | %43
w: ||se, je ne dis|pas _ _ tout|ce que mon cueur|pen- * * *||
"^#" G2 F2 G4- | G8 |] %45
w: * * se.|_|
V:2
 D8 | F4 D2 D2 | D4 z2 D2 | D2 D2 E2 F2 | F4 z2 F2 | G3 F D2 E2 | C4 D4 | D4 z2 D2 | F6 F2 | %9
w: Des|herb ais as-|sez, bel|le, pour toy gue-|rir, pour|toy _ _ gue-||rir, sans|aul- tre-|
 E2 E2 F2 F2 | G2 G2 C4 | z2 F2 A2 B2 | A4 F4 | A4 A2 G2 | F2 F2 F2 F2 | F2 E2 D2 C2 | F4 G2 E2 | %17
w: part ung me- di-|cin que- rir,|me- di- cin|que- rir,|pour à ton|mal don- ner al-|le- * * *|* * ge-|
 F4 D4- | D2 D2 E2 D2 | B,2 D4 C2 | D2 A,2 A,3 B, | C2 D2 E2 F2- | F2 E2 F2 ED | CB,A,G, F,2 F2- | %24
w: * ment,|_ puis tu scais|_ _ _|bien, quan- tef- *|* fois et com-|||
 F2 E2 F4 | E4 D2 F2 | F2 D2 E4 | z2 E2 E2 E2 | F2 C2 D4 | C4 A,2 A,2 | D3 E F2 G2 | A2 B4 G2 | %32
w: |* ment, je|t'ay ser- vy|sans quel- que|re- com- pen-|* se, sans|quel- * * que|re- com- *|
 A4 F4- | F2 F2 G2 G2 | D2 F2 D3 E | FG A2 D2 F2- | F2 F2 F4 |"^b" D2 E2 D4 | z2 D2 F2 F2 | %39
w: pen- se.|_ Je ne dis|pas tout ce- _|_ _ _ _ que|_ mon cueur|pen- * se,|je ne dis|
 G3 F D2 F2 | D3 E FG A2 | D2 F4 F2 |"^b" F4 D2 E2 | D4 D4- | D8 |] %45
w: pas _ _ tout|_ _ _ _ _|* que mon|cueur pen- *|* se.|_|
V:3
 B3 A Bc d2- | d2 c2 B4 | A6 A2 | B2 A2 B2 c2 | dcde fedc | BAGA BA c2- | cB G2 A4 | G4 z2 B2 | %8
w: Des _ _ _ herb|_ ais as-|sez, bel-|le, pour toy gue-||||rir, sans|
 c4 d4 | c6 c2 | d2 e2 f4 | e2 d2 f2 g2 | e4 d4 | f4 e2 d2 | c2 c2 d2 d2 | c2 B2 A3 B | %16
w: aul- tre-|part ung|me- di- cin|que- * * *|* rir,|pour à ton|mal don- ner al-|le- * * *|
 c2 d2 edcB | c4 B4- | B2 B2 c2 B2 | G2 B4 AG | A2 F2 F3 G | A2 B2 c2 d2- | d2 c2 B4 | A4 z2 d2- | %24
w: |ge- ment,|_ puis tu scais|_ _ _ _|bien, quan- tef- *|* fois et com-||ment, et|
 d2 B2 c2 d2- | d2 c2 d2 d2 | c2 B2 c2 G2 | c3 B A2 G2 | F2 G2 A2 B2 | G4 F2 F2 | B3 c d2 e2 | %31
w: _ com- * *|* * ment, je|t'ay ser- vy sans|quel- * * que|re- com- pen- *|* se, sans|quel- * * que|
 f2 g3 f d2 | e4 d4 | z4 d4 | d2 c2 B3 A | F2 A2 B2 d2 | d2 c2 d3 c | B2 c2 A4 | G4 z4 | d4 d2 c2 | %40
w: re- com- * *|pen- se.|Je|ne dis pas _|_ tout ce que|mon cueur pen- *||se,|je ne dis|
 B3 A F2 A2 | B2 d2 d2 c2 | d3 c B2 c2 | A4 G4- | G8 |] %45
w: pas _ _ tout|ce que mon cueur|pen- * * *|* se.|_|
V:4
 G,8 |"^#" F,4 G,2 G,2 | D,6 D,2 | G,2 D,2 G,2 F,2 | B,,6 D,2 | G,2 G,4 C,2 | E,4 D,4 | G,8 | %8
w: Des|herb ais as-|sez, bel-|le, pour toy gue-|rir, bel-|le pour toy|gue- *||
 F,4 B,,4 | C,2 C,2 F,2 A,2 | G,2 G,2 F,G,A,B, | C2 D4 G,2 | A,4 D,4- | D,2 D,2 A,2 B,2 | %14
w: rir, sans|aul- tre- part ung|me- di- cin _ _ _|que- * *|rir, pour|_ à ton mal|
 F,2 F,2 B,,C, D,E, | F,2 G,2 D,2 F,2- | F,E, D,2 C,2 G,2 | F,4 z2 G,2 | G,2 G,2 C,2 G,2- | %19
w: don- ner al- * * *|le- ge- * *|* * * * ge-|ment, puis|tu scais _ _|
"^b" G,F,E,D, E,4 | D,8 | z4 z2 B,,2 | B,,2 C,2 D,2 E,2 | F,3 G, A,2 B,2 | G,4 F,2 D,2 | %25
w: _ _ _ _ _|bien,|quan-|tef- fois et com-|||
 A,4 z2 D,2 | F,2 G,2 C,4- | C,4 z2 C,2 | F,2 E,2 D,2 B,,2 | C,4 D,4 | B,,2 B,3 A, G,2 | %31
w: ment, je|t'ay ser- vy|_ sans|quel- que re- com-|pen- se,|sans quel- * *|
 F,2 _E,2 G,2 B,2 | A,4 z2 B,2 | B,2 A,2 G,2 G,2 | B,2 F,2 G,2 G,2 | D,2 F,2 B,,3 C, | %36
w: que re- com- pen-|se. Je|ne dis pas tout|ce que mon cueur|pen- * * *|
 D,E, F,2 B,,2 F,2 | G,2 C,2 D,4 | z2 B,2 B,2 A,2 | G,2 G,2 B,2 F,2 | G,2 G,2 D,2 F,2 | %41
w: |* * se,|Je ne dis|pas tout ce que|mon cueur pen- *|
 B,,3 C, D,E, F,2 | B,,2 F,2 G,2 C,2 | D,4 G,4- | G,8 |] %45
w: ||* se.|_|

